svg/fluentui-system-icons/ic_fluent_panel_left_text_48_regular.svg

<svg width="48" height="48" viewBox="0 0 48 48" fill="none" xmlns="http://www.w3.org/2000/svg">
<path d="M8.5 15C8.5 14.3096 9.05964 13.75 9.75 13.75H13.25C13.9404 13.75 14.5 14.3096 14.5 15C14.5 15.6904 13.9404 16.25 13.25 16.25H9.75C9.05964 16.25 8.5 15.6904 8.5 15ZM8.5 24C8.5 23.3096 9.05964 22.75 9.75 22.75H13.25C13.9404 22.75 14.5 23.3096 14.5 24C14.5 24.6904 13.9404 25.25 13.25 25.25H9.75C9.05964 25.25 8.5 24.6904 8.5 24ZM8.5 33C8.5 32.3096 9.05964 31.75 9.75 31.75H13.25C13.9404 31.75 14.5 32.3096 14.5 33C14.5 33.6904 13.9404 34.25 13.25 34.25H9.75C9.05964 34.25 8.5 33.6904 8.5 33ZM4 13.25C4 9.79822 6.79822 7 10.25 7H37.75C41.2018 7 44 9.79822 44 13.25V34.75C44 38.2018 41.2018 41 37.75 41H10.25C6.79822 41 4 38.2018 4 34.75V13.25ZM10.25 9.5C8.17893 9.5 6.5 11.1789 6.5 13.25V34.75C6.5 36.8211 8.17893 38.5 10.25 38.5H16.5L16.5 9.5H10.25ZM37.75 9.5H19L19 38.5H37.75C39.8211 38.5 41.5 36.8211 41.5 34.75V13.25C41.5 11.1789 39.8211 9.5 37.75 9.5Z" fill="#212121"/>
</svg>

<svg xmlns="http://www.w3.org/2000/svg" width="48" height="48"><path d="M8.5 15c0-.69.56-1.25 1.25-1.25h3.5a1.25 1.25 0 1 1 0 2.5h-3.5c-.69 0-1.25-.56-1.25-1.25Zm0 9c0-.69.56-1.25 1.25-1.25h3.5a1.25 1.25 0 1 1 0 2.5h-3.5c-.69 0-1.25-.56-1.25-1.25Zm0 9c0-.69.56-1.25 1.25-1.25h3.5a1.25 1.25 0 1 1 0 2.5h-3.5c-.69 0-1.25-.56-1.25-1.25ZM4 13.25A6.25 6.25 0 0 1 10.25 7h27.5A6.25 6.25 0 0 1 44 13.25v21.5A6.25 6.25 0 0 1 37.75 41h-27.5A6.25 6.25 0 0 1 4 34.75v-21.5Zm6.25-3.75a3.75 3.75 0 0 0-3.75 3.75v21.5a3.75 3.75 0 0 0 3.75 3.75h6.25v-29h-6.25Zm27.5 0H19v29h18.75a3.75 3.75 0 0 0 3.75-3.75v-21.5a3.75 3.75 0 0 0-3.75-3.75Z"/></svg>
